icons/bv.svg

<?xml version="1.0" ?>
<svg xmlns="http://www.w3.org/2000/svg" xmlns:ev="http://www.w3.org/2001/xml-events" xmlns:xlink="http://www.w3.org/1999/xlink" baseProfile="full" height="377px" version="1.1" viewBox="-1026.8666290481617 1263.8547625777912 12291.14272738468 7711.572396412947" width="600px">
	<defs/>
	<path d="M 3595.0,8281.0 C 3567.0,8251.0 3537.0,8230.0 3525.0,8230.0 C 3513.0,8230.0 3455.0,8244.0 3397.0,8260.0 C 3274.0,8294.0 3152.0,8300.0 3080.0,8275.0 C 3057.0,8267.0 3005.0,8260.0 2966.0,8260.0 C 2879.0,8260.0 2715.0,8231.0 2600.0,8194.0 C 2528.0,8172.0 2490.0,8166.0 2355.0,8161.0 C 2202.0,8155.0 2192.0,8154.0 2125.0,8123.0 C 2087.0,8105.0 2024.0,8086.0 1985.0,8080.0 C 1947.0,8074.0 1880.0,8058.0 1837.0,8045.0 C 1783.0,8028.0 1736.0,8020.0 1684.0,8020.0 C 1619.0,8020.0 1601.0,8016.0 1540.0,7985.0 C 1487.0,7959.0 1458.0,7950.0 1419.0,7950.0 C 1364.0,7950.0 1326.0,7928.0 1174.0,7808.0 C 1110.0,7758.0 1092.0,7752.0 1072.0,7772.0 C 1062.0,7782.0 1047.0,7771.0 1000.0,7725.0 C 943.0,7668.0 939.0,7666.0 880.0,7662.0 C 827.0,7658.0 817.0,7654.0 807.0,7633.0 C 801.0,7620.0 784.0,7602.0 768.0,7594.0 C 753.0,7586.0 730.0,7566.0 718.0,7549.0 C 683.0,7502.0 615.0,7472.0 565.0,7481.0 C 543.0,7485.0 506.0,7489.0 482.0,7489.0 L 440.0,7490.0 L 446.0,7449.0 C 455.0,7392.0 434.0,7334.0 395.0,7310.0 C 358.0,7287.0 350.0,7261.0 350.0,7161.0 C 350.0,7111.0 344.0,7082.0 324.0,7040.0 C 310.0,7010.0 289.0,6961.0 278.0,6932.0 C 249.0,6854.0 234.0,6851.0 154.0,6905.0 C 108.0,6936.0 76.0,6950.0 53.0,6950.0 C 21.0,6950.0 20.0,6948.0 20.0,6911.0 C 20.0,6865.0 47.0,6828.0 98.0,6800.0 C 169.0,6763.0 180.0,6749.0 191.0,6680.0 C 199.0,6629.0 198.0,6603.0 186.0,6555.0 C 178.0,6522.0 168.0,6474.0 165.0,6448.0 C 160.0,6411.0 151.0,6394.0 119.0,6363.0 C 98.0,6342.0 63.0,6301.0 42.0,6271.0 C 7.0,6219.0 5.0,6212.0 2.0,6124.0 C 0.0,6072.0 7.0,5961.0 18.0,5864.0 C 30.0,5771.0 41.0,5648.0 45.0,5590.0 C 50.0,5494.0 53.0,5481.0 81.0,5443.0 C 128.0,5377.0 151.0,5298.0 160.0,5170.0 C 169.0,5050.0 181.0,4993.0 206.0,4948.0 C 235.0,4895.0 258.0,4812.0 265.0,4734.0 C 269.0,4686.0 281.0,4634.0 296.0,4602.0 C 330.0,4525.0 407.0,4414.0 457.0,4370.0 C 481.0,4350.0 500.0,4326.0 500.0,4319.0 C 500.0,4311.0 518.0,4278.0 541.0,4245.0 C 563.0,4212.0 590.0,4167.0 602.0,4145.0 C 629.0,4092.0 743.0,3935.0 789.0,3887.0 C 809.0,3866.0 853.0,3831.0 886.0,3809.0 C 927.0,3783.0 960.0,3751.0 984.0,3714.0 C 1057.0,3605.0 1150.0,3538.0 1263.0,3515.0 C 1373.0,3492.0 1387.0,3486.0 1409.0,3443.0 C 1419.0,3422.0 1449.0,3388.0 1475.0,3366.0 C 1520.0,3329.0 1523.0,3328.0 1587.0,3332.0 L 1652.0,3336.0 L 1691.0,3278.0 C 1724.0,3230.0 1737.0,3219.0 1773.0,3210.0 C 1884.0,3181.0 1935.0,3155.0 2000.0,3095.0 C 2019.0,3077.0 2073.0,3042.0 2120.0,3018.0 C 2286.0,2930.0 2374.0,2874.0 2444.0,2810.0 C 2483.0,2774.0 2571.0,2710.0 2640.0,2668.0 C 2709.0,2626.0 2776.0,2580.0 2789.0,2566.0 C 2810.0,2543.0 2822.0,2540.0 2877.0,2540.0 C 2924.0,2540.0 2942.0,2544.0 2946.0,2555.0 C 2954.0,2575.0 2986.0,2574.0 2994.0,2554.0 C 2997.0,2545.0 3000.0,2527.0 3000.0,2514.0 C 3000.0,2493.0 3011.0,2484.0 3063.0,2460.0 C 3097.0,2443.0 3131.0,2430.0 3137.0,2430.0 C 3144.0,2430.0 3158.0,2447.0 3169.0,2467.0 C 3179.0,2488.0 3197.0,2514.0 3209.0,2524.0 C 3230.0,2543.0 3231.0,2543.0 3253.0,2522.0 C 3293.0,2484.0 3326.0,2494.0 3369.0,2558.0 C 3389.0,2586.0 3397.0,2590.0 3435.0,2590.0 C 3459.0,2590.0 3482.0,2585.0 3486.0,2579.0 C 3498.0,2559.0 3577.0,2530.0 3676.0,2510.0 C 3731.0,2499.0 3778.0,2490.0 3782.0,2490.0 C 3786.0,2490.0 3793.0,2508.0 3796.0,2529.0 C 3802.0,2569.0 3803.0,2569.0 3857.0,2576.0 C 3899.0,2581.0 3925.0,2578.0 3974.0,2561.0 C 4055.0,2534.0 4121.0,2533.0 4145.0,2560.0 C 4167.0,2585.0 4170.0,2585.0 4225.0,2559.0 L 4269.0,2538.0 L 4343.0,2560.0 C 4405.0,2579.0 4428.0,2581.0 4481.0,2574.0 L 4545.0,2565.0 L 4548.0,2520.0 C 4549.0,2495.0 4558.0,2442.0 4567.0,2402.0 L 4583.0,2329.0 L 4492.0,2237.0 C 4392.0,2136.0 4374.0,2103.0 4395.0,2053.0 C 4405.0,2030.0 4417.0,2020.0 4442.0,2015.0 C 4483.0,2006.0 4564.0,1966.0 4607.0,1934.0 C 4648.0,1903.0 4693.0,1903.0 4717.0,1934.0 C 4728.0,1947.0 4751.0,1961.0 4770.0,1965.0 C 4789.0,1969.0 4818.0,1983.0 4833.0,1996.0 C 4849.0,2009.0 4874.0,2020.0 4890.0,2020.0 C 4924.0,2020.0 4935.0,2044.0 4921.0,2083.0 C 4915.0,2098.0 4906.0,2138.0 4900.0,2173.0 C 4889.0,2231.0 4883.0,2242.0 4834.0,2291.0 C 4772.0,2352.0 4768.0,2371.0 4806.0,2429.0 C 4828.0,2462.0 4836.0,2467.0 4851.0,2460.0 C 4861.0,2454.0 4894.0,2450.0 4926.0,2450.0 C 4982.0,2450.0 4983.0,2450.0 4965.0,2430.0 C 4948.0,2411.0 4948.0,2410.0 4974.0,2400.0 C 4989.0,2395.0 5018.0,2390.0 5039.0,2390.0 C 5073.0,2390.0 5083.0,2396.0 5129.0,2450.0 C 5158.0,2483.0 5190.0,2510.0 5200.0,2510.0 C 5210.0,2510.0 5220.0,2515.0 5222.0,2522.0 C 5225.0,2530.0 5233.0,2528.0 5251.0,2517.0 C 5264.0,2509.0 5311.0,2492.0 5354.0,2480.0 C 5397.0,2468.0 5449.0,2450.0 5469.0,2439.0 C 5489.0,2429.0 5535.0,2418.0 5571.0,2414.0 C 5642.0,2407.0 5671.0,2417.0 5740.0,2470.0 C 5808.0,2523.0 5835.0,2532.0 5910.0,2524.0 C 5979.0,2518.0 5979.0,2517.0 5991.0,2481.0 C 5997.0,2461.0 6005.0,2442.0 6009.0,2437.0 C 6013.0,2433.0 6056.0,2450.0 6105.0,2476.0 L 6195.0,2521.0 L 6345.0,2510.0 L 6495.0,2499.0 L 6528.0,2464.0 C 6547.0,2444.0 6588.0,2419.0 6626.0,2403.0 C 6676.0,2383.0 6697.0,2368.0 6717.0,2339.0 C 6761.0,2272.0 6805.0,2251.0 6917.0,2244.0 C 7026.0,2237.0 7035.0,2233.0 7091.0,2183.0 C 7124.0,2153.0 7133.0,2150.0 7145.0,2160.0 C 7158.0,2171.0 7163.0,2170.0 7173.0,2156.0 C 7184.0,2142.0 7210.0,2137.0 7315.0,2131.0 C 7387.0,2127.0 7450.0,2121.0 7456.0,2117.0 C 7462.0,2113.0 7492.0,2124.0 7521.0,2140.0 C 7564.0,2163.0 7583.0,2168.0 7615.0,2163.0 C 7649.0,2159.0 7669.0,2164.0 7736.0,2198.0 C 7779.0,2220.0 7835.0,2241.0 7860.0,2245.0 C 7885.0,2249.0 7913.0,2259.0 7923.0,2268.0 C 7939.0,2282.0 7945.0,2282.0 7988.0,2267.0 C 8014.0,2258.0 8047.0,2250.0 8061.0,2250.0 C 8076.0,2250.0 8097.0,2238.0 8114.0,2221.0 C 8129.0,2205.0 8157.0,2189.0 8174.0,2186.0 C 8192.0,2182.0 8217.0,2169.0 8230.0,2155.0 C 8243.0,2141.0 8265.0,2130.0 8279.0,2130.0 C 8325.0,2130.0 8379.0,2150.0 8385.0,2169.0 C 8388.0,2179.0 8409.0,2196.0 8432.0,2206.0 C 8454.0,2216.0 8485.0,2237.0 8501.0,2253.0 L 8529.0,2281.0 L 8572.0,2254.0 C 8596.0,2239.0 8627.0,2213.0 8642.0,2195.0 C 8659.0,2175.0 8689.0,2155.0 8717.0,2146.0 C 8743.0,2137.0 8778.0,2117.0 8795.0,2101.0 C 8829.0,2069.0 8845.0,2069.0 8980.0,2105.0 C 9023.0,2117.0 9064.0,2121.0 9102.0,2117.0 C 9163.0,2112.0 9180.0,2119.0 9154.0,2141.0 C 9130.0,2161.0 9107.0,2211.0 9099.0,2260.0 C 9093.0,2299.0 9095.0,2310.0 9117.0,2337.0 C 9138.0,2366.0 9147.0,2370.0 9186.0,2370.0 C 9233.0,2370.0 9249.0,2393.0 9211.0,2405.0 C 9168.0,2418.0 9159.0,2537.0 9200.0,2562.0 C 9218.0,2574.0 9218.0,2575.0 9199.0,2601.0 C 9174.0,2636.0 9174.0,2670.0 9198.0,2670.0 C 9227.0,2670.0 9230.0,2680.0 9209.0,2713.0 C 9184.0,2755.0 9185.0,2776.0 9215.0,2812.0 C 9241.0,2842.0 9249.0,2895.0 9229.0,2902.0 C 9221.0,2905.0 9222.0,2932.0 9233.0,2999.0 C 9243.0,3067.0 9245.0,3103.0 9237.0,3131.0 C 9232.0,3153.0 9229.0,3172.0 9231.0,3173.0 C 9233.0,3175.0 9269.0,3198.0 9310.0,3224.0 C 9351.0,3251.0 9389.0,3280.0 9394.0,3288.0 C 9399.0,3296.0 9418.0,3320.0 9437.0,3341.0 C 9467.0,3375.0 9478.0,3380.0 9514.0,3380.0 C 9547.0,3380.0 9562.0,3386.0 9581.0,3406.0 C 9621.0,3449.0 9653.0,3460.0 9738.0,3460.0 L 9817.0,3460.0 L 9840.0,3510.0 C 9867.0,3568.0 9860.0,3597.0 9811.0,3626.0 C 9770.0,3650.0 9759.0,3713.0 9787.0,3767.0 L 9807.0,3805.0 L 9886.0,3810.0 L 9964.0,3815.0 L 9987.0,3855.0 C 9999.0,3876.0 10018.0,3897.0 10029.0,3902.0 C 10052.0,3910.0 10178.0,4075.0 10208.0,4135.0 C 10245.0,4210.0 10245.0,4218.0 10208.0,4228.0 L 10175.0,4236.0 L 10172.0,4310.0 C 10170.0,4365.0 10173.0,4392.0 10186.0,4415.0 C 10202.0,4445.0 10201.0,4448.0 10176.0,4498.0 C 10162.0,4526.0 10141.0,4554.0 10130.0,4560.0 C 10119.0,4566.0 10104.0,4586.0 10096.0,4604.0 C 10088.0,4622.0 10069.0,4647.0 10052.0,4659.0 C 10028.0,4676.0 10020.0,4690.0 10015.0,4729.0 L 10008.0,4777.0 L 9924.0,4783.0 C 9841.0,4788.0 9839.0,4789.0 9786.0,4834.0 C 9740.0,4873.0 9729.0,4890.0 9707.0,4952.0 C 9693.0,4992.0 9666.0,5066.0 9646.0,5115.0 C 9614.0,5196.0 9611.0,5215.0 9610.0,5303.0 C 9610.0,5395.0 9612.0,5405.0 9644.0,5468.0 C 9663.0,5505.0 9692.0,5551.0 9709.0,5570.0 L 9739.0,5605.0 L 9740.0,5573.0 C 9740.0,5533.0 9743.0,5532.0 9874.0,5564.0 C 9943.0,5581.0 9976.0,5594.0 9983.0,5606.0 C 9989.0,5617.0 10009.0,5639.0 10028.0,5657.0 C 10059.0,5686.0 10079.0,5697.0 10133.0,5714.0 C 10146.0,5718.0 10150.0,5728.0 10148.0,5747.0 C 10145.0,5770.0 10130.0,5780.0 10012.0,5835.0 C 9917.0,5879.0 9852.0,5917.0 9786.0,5969.0 C 9694.0,6041.0 9692.0,6042.0 9686.0,6093.0 C 9682.0,6122.0 9661.0,6182.0 9640.0,6227.0 C 9619.0,6272.0 9594.0,6339.0 9585.0,6377.0 L 9567.0,6445.0 L 9593.0,6497.0 C 9614.0,6538.0 9620.0,6564.0 9620.0,6614.0 C 9620.0,6706.0 9608.0,6728.0 9551.0,6735.0 C 9478.0,6745.0 9470.0,6750.0 9452.0,6786.0 C 9440.0,6813.0 9409.0,6837.0 9311.0,6896.0 C 9212.0,6956.0 9174.0,6985.0 9135.0,7033.0 C 9087.0,7090.0 8836.0,7301.0 8758.0,7349.0 C 8737.0,7361.0 8703.0,7392.0 8683.0,7417.0 C 8653.0,7454.0 8624.0,7473.0 8544.0,7511.0 C 8473.0,7544.0 8435.0,7568.0 8417.0,7592.0 C 8395.0,7620.0 8376.0,7630.0 8296.0,7654.0 C 8212.0,7679.0 8193.0,7682.0 8118.0,7675.0 C 8043.0,7669.0 8029.0,7664.0 7978.0,7629.0 C 7918.0,7587.0 7815.0,7555.0 7709.0,7543.0 C 7659.0,7538.0 7648.0,7541.0 7615.0,7563.0 L 7576.0,7589.0 L 7566.0,7568.0 C 7560.0,7556.0 7542.0,7543.0 7527.0,7539.0 C 7503.0,7533.0 7498.0,7535.0 7489.0,7556.0 C 7484.0,7570.0 7480.0,7584.0 7480.0,7588.0 C 7480.0,7591.0 7466.0,7618.0 7448.0,7647.0 L 7416.0,7700.0 L 7344.0,7700.0 L 7272.0,7700.0 L 7247.0,7657.0 C 7217.0,7607.0 7185.0,7576.0 7172.0,7584.0 C 7166.0,7587.0 7159.0,7607.0 7155.0,7628.0 C 7152.0,7648.0 7129.0,7701.0 7105.0,7745.0 L 7062.0,7824.0 L 7033.0,7729.0 L 7004.0,7635.0 L 6986.0,7668.0 C 6970.0,7700.0 6966.0,7701.0 6932.0,7695.0 C 6903.0,7690.0 6885.0,7694.0 6845.0,7714.0 C 6784.0,7746.0 6650.0,7796.0 6515.0,7839.0 C 6460.0,7857.0 6375.0,7884.0 6325.0,7900.0 C 6276.0,7916.0 6210.0,7932.0 6180.0,7936.0 C 6110.0,7944.0 6038.0,7983.0 5990.0,8038.0 L 5952.0,8081.0 L 5891.0,8051.0 C 5858.0,8034.0 5829.0,8016.0 5825.0,8010.0 C 5812.0,7989.0 5746.0,7970.0 5686.0,7970.0 L 5625.0,7971.0 L 5658.0,7985.0 L 5691.0,8000.0 L 5643.0,8056.0 C 5597.0,8109.0 5595.0,8110.0 5592.0,8086.0 L 5589.0,8060.0 L 5555.0,8086.0 L 5521.0,8112.0 L 5514.0,8085.0 C 5510.0,8068.0 5503.0,8061.0 5493.0,8064.0 C 5485.0,8067.0 5474.0,8070.0 5469.0,8070.0 C 5465.0,8070.0 5454.0,8094.0 5445.0,8124.0 C 5430.0,8175.0 5427.0,8178.0 5392.0,8183.0 C 5372.0,8185.0 5354.0,8186.0 5352.0,8185.0 C 5350.0,8183.0 5354.0,8163.0 5360.0,8140.0 C 5371.0,8100.0 5370.0,8095.0 5348.0,8074.0 C 5329.0,8054.0 5318.0,8052.0 5287.0,8057.0 C 5252.0,8062.0 5246.0,8069.0 5222.0,8116.0 C 5195.0,8172.0 5181.0,8179.0 5137.0,8159.0 C 5118.0,8150.0 5105.0,8152.0 5073.0,8169.0 C 5051.0,8180.0 5011.0,8192.0 4983.0,8196.0 L 4933.0,8202.0 L 4912.0,8152.0 C 4896.0,8116.0 4890.0,8081.0 4890.0,8031.0 C 4890.0,7992.0 4888.0,7960.0 4885.0,7960.0 C 4883.0,7960.0 4865.0,7967.0 4846.0,7976.0 C 4813.0,7992.0 4811.0,7992.0 4784.0,7971.0 C 4762.0,7954.0 4745.0,7950.0 4701.0,7951.0 C 4665.0,7952.0 4634.0,7947.0 4613.0,7937.0 C 4595.0,7927.0 4563.0,7920.0 4540.0,7920.0 C 4508.0,7920.0 4500.0,7924.0 4500.0,7938.0 C 4500.0,7948.0 4487.0,7974.0 4470.0,7996.0 C 4449.0,8024.0 4440.0,8046.0 4440.0,8075.0 C 4440.0,8114.0 4438.0,8117.0 4385.0,8143.0 C 4311.0,8179.0 4277.0,8178.0 4250.0,8141.0 C 4223.0,8102.0 4202.0,8097.0 4150.0,8115.0 C 4127.0,8123.0 4093.0,8130.0 4076.0,8131.0 C 4050.0,8131.0 4036.0,8142.0 3993.0,8193.0 C 3944.0,8253.0 3939.0,8256.0 3842.0,8288.0 C 3787.0,8306.0 3720.0,8323.0 3693.0,8326.0 C 3646.0,8332.0 3644.0,8331.0 3595.0,8281.0" fill="pink"/>
</svg>

<?xml version="1.0" standalone="no"?>
<!DOCTYPE svg PUBLIC "-//W3C//DTD SVG 20010904//EN"
 "http://www.w3.org/TR/2001/REC-SVG-20010904/DTD/svg10.dtd">
<svg version="1.0" xmlns="http://www.w3.org/2000/svg"
 width="1024.000000pt" height="1024.000000pt" viewBox="0 0 1024.000000 1024.000000"
 preserveAspectRatio="xMidYMid meet">
<metadata>
Created by potrace 1.10, written by Peter Selinger 2001-2011
</metadata>
<g transform="translate(0.000000,1024.000000) scale(0.100000,-0.100000)"
fill="#000000" stroke="none">
<path d="M3595 8281 c-28 -30 -58 -51 -70 -51 -12 0 -70 14 -128 30 -123 34
-245 40 -317 15 -23 -8 -75 -15 -114 -15 -87 0 -251 -29 -366 -66 -72 -22
-110 -28 -245 -33 -153 -6 -163 -7 -230 -38 -38 -18 -101 -37 -140 -43 -38 -6
-105 -22 -148 -35 -54 -17 -101 -25 -153 -25 -65 0 -83 -4 -144 -35 -53 -26
-82 -35 -121 -35 -55 0 -93 -22 -245 -142 -64 -50 -82 -56 -102 -36 -10 10
-25 -1 -72 -47 -57 -57 -61 -59 -120 -63 -53 -4 -63 -8 -73 -29 -6 -13 -23
-31 -39 -39 -15 -8 -38 -28 -50 -45 -35 -47 -103 -77 -153 -68 -22 4 -59 8
-83 8 l-42 1 6 -41 c9 -57 -12 -115 -51 -139 -37 -23 -45 -49 -45 -149 0 -50
-6 -79 -26 -121 -14 -30 -35 -79 -46 -108 -29 -78 -44 -81 -124 -27 -46 31
-78 45 -101 45 -32 0 -33 -2 -33 -39 0 -46 27 -83 78 -111 71 -37 82 -51 93
-120 8 -51 7 -77 -5 -125 -8 -33 -18 -81 -21 -107 -5 -37 -14 -54 -46 -85 -21
-21 -56 -62 -77 -92 -35 -52 -37 -59 -40 -147 -2 -52 5 -163 16 -260 12 -93
23 -216 27 -274 5 -96 8 -109 36 -147 47 -66 70 -145 79 -273 9 -120 21 -177
46 -222 29 -53 52 -136 59 -214 4 -48 16 -100 31 -132 34 -77 111 -188 161
-232 24 -20 43 -44 43 -51 0 -8 18 -41 41 -74 22 -33 49 -78 61 -100 27 -53
141 -210 187 -258 20 -21 64 -56 97 -78 41 -26 74 -58 98 -95 73 -109 166
-176 279 -199 110 -23 124 -29 146 -72 10 -21 40 -55 66 -77 45 -37 48 -38
112 -34 l65 4 39 -58 c33 -48 46 -59 82 -68 111 -29 162 -55 227 -115 19 -18
73 -53 120 -77 166 -88 254 -144 324 -208 39 -36 127 -100 196 -142 69 -42
136 -88 149 -102 21 -23 33 -26 88 -26 47 0 65 4 69 15 8 20 40 19 48 -1 3 -9
6 -27 6 -40 0 -21 11 -30 63 -54 34 -17 68 -30 74 -30 7 0 21 17 32 37 10 21
28 47 40 57 21 19 22 19 44 -2 40 -38 73 -28 116 36 20 28 28 32 66 32 24 0
47 -5 51 -11 12 -20 91 -49 190 -69 55 -11 102 -20 106 -20 4 0 11 18 14 39 6
40 7 40 61 47 42 5 68 2 117 -15 81 -27 147 -28 171 -1 22 25 25 25 80 -1 l44
-21 74 22 c62 19 85 21 138 14 l64 -9 3 -45 c1 -25 10 -78 19 -118 l16 -73
-91 -92 c-100 -101 -118 -134 -97 -184 10 -23 22 -33 47 -38 41 -9 122 -49
165 -81 41 -31 86 -31 110 0 11 13 34 27 53 31 19 4 48 18 63 31 16 13 41 24
57 24 34 0 45 24 31 63 -6 15 -15 55 -21 90 -11 58 -17 69 -66 118 -62 61 -66
80 -28 138 22 33 30 38 45 31 10 -6 43 -10 75 -10 56 0 57 0 39 -20 -17 -19
-17 -20 9 -30 15 -5 44 -10 65 -10 34 0 44 6 90 60 29 33 61 60 71 60 10 0 20
5 22 12 3 8 11 6 29 -5 13 -8 60 -25 103 -37 43 -12 95 -30 115 -41 20 -10 66
-21 102 -25 71 -7 100 3 169 56 68 53 95 62 170 54 69 -6 69 -7 81 -43 6 -20
14 -39 18 -44 4 -4 47 13 96 39 l90 45 150 -11 150 -11 33 -35 c19 -20 60 -45
98 -61 50 -20 71 -35 91 -64 44 -67 88 -88 200 -95 109 -7 118 -11 174 -61 33
-30 42 -33 54 -23 13 11 18 10 28 -4 11 -14 37 -19 142 -25 72 -4 135 -10 141
-14 6 -4 36 7 65 23 43 23 62 28 94 23 34 -4 54 1 121 35 43 22 99 43 124 47
25 4 53 14 63 23 16 14 22 14 65 -1 26 -9 59 -17 73 -17 15 0 36 -12 53 -29
15 -16 43 -32 60 -35 18 -4 43 -17 56 -31 13 -14 35 -25 49 -25 46 0 100 20
106 39 3 10 24 27 47 37 22 10 53 31 69 47 l28 28 43 -27 c24 -15 55 -41 70
-59 17 -20 47 -40 75 -49 26 -9 61 -29 78 -45 34 -32 50 -32 185 4 43 12 84
16 122 12 61 -5 78 2 52 24 -24 20 -47 70 -55 119 -6 39 -4 50 18 77 21 29 30
33 69 33 47 0 63 23 25 35 -43 13 -52 132 -11 157 18 12 18 13 -1 39 -25 35
-25 69 -1 69 29 0 32 10 11 43 -25 42 -24 63 6 99 26 30 34 83 14 90 -8 3 -7
30 4 97 10 68 12 104 4 132 -5 22 -8 41 -6 42 2 2 38 25 79 51 41 27 79 56 84
64 5 8 24 32 43 53 30 34 41 39 77 39 33 0 48 6 67 26 40 43 72 54 157 54 l79
0 23 50 c27 58 20 87 -29 116 -41 24 -52 87 -24 141 l20 38 79 5 78 5 23 40
c12 21 31 42 42 47 23 8 149 173 179 233 37 75 37 83 0 93 l-33 8 -3 74 c-2
55 1 82 14 105 16 30 15 33 -10 83 -14 28 -35 56 -46 62 -11 6 -26 26 -34 44
-8 18 -27 43 -44 55 -24 17 -32 31 -37 70 l-7 48 -84 6 c-83 5 -85 6 -138 51
-46 39 -57 56 -79 118 -14 40 -41 114 -61 163 -32 81 -35 100 -36 188 0 92 2
102 34 165 19 37 48 83 65 102 l30 35 1 -32 c0 -40 3 -41 134 -9 69 17 102 30
109 42 6 11 26 33 45 51 31 29 51 40 105 57 13 4 17 14 15 33 -3 23 -18 33
-136 88 -95 44 -160 82 -226 134 -92 72 -94 73 -100 124 -4 29 -25 89 -46 134
-21 45 -46 112 -55 150 l-18 68 26 52 c21 41 27 67 27 117 0 92 -12 114 -69
121 -73 10 -81 15 -99 51 -12 27 -43 51 -141 110 -99 60 -137 89 -176 137 -48
57 -299 268 -377 316 -21 12 -55 43 -75 68 -30 37 -59 56 -139 94 -71 33 -109
57 -127 81 -22 28 -41 38 -121 62 -84 25 -103 28 -178 21 -75 -6 -89 -11 -140
-46 -60 -42 -163 -74 -269 -86 -50 -5 -61 -2 -94 20 l-39 26 -10 -21 c-6 -12
-24 -25 -39 -29 -24 -6 -29 -4 -38 17 -5 14 -9 28 -9 32 0 3 -14 30 -32 59
l-32 53 -72 0 -72 0 -25 -43 c-30 -50 -62 -81 -75 -73 -6 3 -13 23 -17 44 -3
20 -26 73 -50 117 l-43 79 -29 -95 -29 -94 -18 33 c-16 32 -20 33 -54 27 -29
-5 -47 -1 -87 19 -61 32 -195 82 -330 125 -55 18 -140 45 -190 61 -49 16 -115
32 -145 36 -70 8 -142 47 -190 102 l-38 43 -61 -30 c-33 -17 -62 -35 -66 -41
-13 -21 -79 -40 -139 -40 l-61 1 33 14 33 15 -48 56 c-46 53 -48 54 -51 30
l-3 -26 -34 26 -34 26 -7 -27 c-4 -17 -11 -24 -21 -21 -8 3 -19 6 -24 6 -4 0
-15 24 -24 54 -15 51 -18 54 -53 59 -20 2 -38 3 -40 2 -2 -2 2 -22 8 -45 11
-40 10 -45 -12 -66 -19 -20 -30 -22 -61 -17 -35 5 -41 12 -65 59 -27 56 -41
63 -85 43 -19 -9 -32 -7 -64 10 -22 11 -62 23 -90 27 l-50 6 -21 -50 c-16 -36
-22 -71 -22 -121 0 -39 -2 -71 -5 -71 -2 0 -20 7 -39 16 -33 16 -35 16 -62 -5
-22 -17 -39 -21 -83 -20 -36 1 -67 -4 -88 -14 -18 -10 -50 -17 -73 -17 -32 0
-40 4 -40 18 0 10 -13 36 -30 58 -21 28 -30 50 -30 79 0 39 -2 42 -55 68 -74
36 -108 35 -135 -2 -27 -39 -48 -44 -100 -26 -23 8 -57 15 -74 16 -26 0 -40
11 -83 62 -49 60 -54 63 -151 95 -55 18 -122 35 -149 38 -47 6 -49 5 -98 -45z"/>
</g>
</svg>
